X:22
T:Scots wha hae  
O:No 22 Pages 8-9 William Clarke of Feltwell  MS 1858
N:Compare #40
I:abc2nwc
M:2/4
L:1/16
K:F
c3cc3c|c3A f4|d3dd3c|d3e f2 zg|
a3b g3a|{gfe}f3ga2 zg|fd3 d3c|{=Bcd}c8||
a3aa3g|a3b c'4g3gg3f|g3a b4|c'2a2 g2f2|
f4{gfef}ga2 g|fc3 d3c|c8:|

